dist/img/am.svg

<svg width="179" height="32" viewBox="0 0 179 32" fill="none" xmlns="http://www.w3.org/2000/svg">
<path d="M4.09702 20.373C1.83781 20.373 0 22.2165 0 24.4827C0 26.7489 1.83781 28.5923 4.09702 28.5923C6.35623 28.5923 8.19404 26.7489 8.19404 24.4827C8.19404 22.2165 6.35623 20.373 4.09702 20.373Z" fill="#F16041"/>
<path d="M20.4837 20.373C18.2245 20.373 16.3867 22.2165 16.3867 24.4827C16.3867 26.7489 18.2245 28.5923 20.4837 28.5923C22.743 28.5923 24.5808 26.7489 24.5808 24.4827C24.5808 22.2165 22.743 20.373 20.4837 20.373Z" fill="#F16041"/>
<path d="M36.8714 20.373C34.6122 20.373 32.7744 22.2165 32.7744 24.4827C32.7744 26.7489 34.6122 28.5923 36.8714 28.5923C39.1306 28.5923 40.9685 26.7489 40.9685 24.4827C40.9685 22.2165 39.1306 20.373 36.8714 20.373Z" fill="#F16041"/>
<path d="M53.2582 20.373C50.9989 20.373 49.1611 22.2165 49.1611 24.4827C49.1611 26.7489 50.9989 28.5923 53.2582 28.5923C55.5174 28.5923 57.3552 26.7489 57.3552 24.4827C57.3552 22.2165 55.5174 20.373 53.2582 20.373Z" fill="#F16041"/>
<path d="M45.0638 12.1543C42.8046 12.1543 40.9668 13.9978 40.9668 16.2639C40.9668 18.5301 42.8046 20.3736 45.0638 20.3736C47.323 20.3736 49.1608 18.5301 49.1608 16.2639C49.1608 13.9978 47.323 12.1543 45.0638 12.1543Z" fill="#F16041"/>
<path d="M12.2909 3.93652C10.0317 3.93652 8.19385 5.78 8.19385 8.04616C8.19385 10.3123 10.0317 12.1558 12.2909 12.1558C14.5501 12.1558 16.3879 10.3123 16.3879 8.04616C16.3879 5.78 14.5501 3.93652 12.2909 3.93652Z" fill="#F16041"/>
<path d="M36.8714 12.1538C39.1306 12.1538 40.9685 10.3104 40.9685 8.04421C40.9685 5.77804 39.1306 3.93457 36.8714 3.93457C34.6122 3.93457 32.7744 5.77804 32.7744 8.04421C32.7744 10.3104 34.6122 12.1538 36.8714 12.1538Z" fill="#F16041"/>
<path d="M53.2582 12.1538C55.5174 12.1538 57.3552 10.3104 57.3552 8.04421C57.3552 5.77804 55.5174 3.93457 53.2582 3.93457C50.9989 3.93457 49.1611 5.77804 49.1611 8.04421C49.1611 10.3104 50.9989 12.1538 53.2582 12.1538Z" fill="#F16041"/>
<path d="M66.1788 14.4635C65.5138 13.9588 65.0908 13.1713 65.0908 12.0398C65.0908 9.55508 67.1642 8.58593 70.6892 8.58593H71.6954V8.34324C71.6954 7.31302 71.4535 6.66692 70.3062 6.66692C69.3192 6.66692 68.9571 7.25355 68.877 7.91893H65.493C65.5731 6.64602 66.1179 5.69616 67.0039 5.05006C67.8708 4.42325 69.0789 4.12109 70.5289 4.12109C71.979 4.12109 73.1679 4.42325 73.9931 5.07096C74.8182 5.71705 75.2813 6.72799 75.2813 8.12144V14.9698H71.7771V13.737C71.274 14.5246 70.3479 15.2125 68.6559 15.2125C67.7089 15.2125 66.8229 14.9698 66.1788 14.4651M71.697 11.2732V10.6271H70.7501C69.3 10.6271 68.6559 10.91 68.6559 11.7778C68.6559 12.4047 69.0388 12.7679 69.9041 12.7679C70.9311 12.7679 71.697 12.1829 71.697 11.2732Z" fill="#252829"/>
<path d="M80.2996 6.86815V14.9685H76.7153V4.4043H86.8449V14.9685H83.2606V6.86815H80.2996Z" fill="#252829"/>
<path d="M91.9629 6.86815V14.9685H88.377V4.4043H98.5081V14.9685H94.9223V6.86815H91.9629Z" fill="#252829"/>
<path d="M101.124 13.8171C100.097 12.9074 99.4932 11.5348 99.4932 9.81671V9.65438C99.4932 7.95716 100.118 6.583 101.145 5.61385C102.172 4.6447 103.601 4.11914 105.192 4.11914C106.643 4.11914 107.971 4.54344 108.958 5.43223C109.924 6.32102 110.549 7.69519 110.549 9.57402V10.5239H103.138C103.239 11.9173 104.045 12.7258 105.333 12.7258C106.542 12.7258 107.025 12.1809 107.166 11.4737H110.55C110.228 13.8781 108.416 15.2105 105.213 15.2105C103.542 15.2105 102.111 14.7251 101.126 13.8171M105.194 6.50424C104.087 6.50424 103.361 7.19213 103.18 8.48433H107.046C106.985 7.19213 106.381 6.50424 105.194 6.50424Z" fill="#252829"/>
<path d="M117.051 6.86815V14.9685H113.465V6.86815H110.506V4.4043H120.011V6.86815H117.051Z" fill="#252829"/>
<path d="M120.506 4.4043H124.09V10.8283L127.394 4.4043H130.978V14.9685H127.394V8.54447L124.09 14.9685H120.506V4.4043Z" fill="#252829"/>
<path d="M138.03 6.86815V14.9685H134.445V6.86815H131.484V4.4043H140.991V6.86815H138.03Z" fill="#252829"/>
<path d="M145.07 10.8283V14.9685H141.486V4.4043H145.07V8.36286H148.231V4.4043H151.817V14.9685H148.231V10.8283H145.07Z" fill="#252829"/>
<path d="M156.945 4.4043V7.55604H158.637C161.234 7.55604 162.726 9.02985 162.726 11.2928V11.3539C162.726 13.6168 161.396 14.9701 158.496 14.9701H153.36V4.4043H156.945ZM159.079 11.333V11.2719C159.079 10.4442 158.595 10.0199 157.608 10.0199H156.943V12.5046H157.608C158.555 12.5046 159.079 12.2218 159.079 11.333ZM166.973 14.9685H163.408V4.4043H166.973V14.9701V14.9685Z" fill="#252829"/>
<path d="M168.529 4.40376H172.114V10.8278L175.416 4.40376H179V14.9696H175.416V8.54554L172.114 14.9696H168.529V4.40376ZM170.341 0H172.779C172.839 0.565738 173.08 1.03022 173.665 1.03022C174.249 1.03022 174.53 0.565738 174.612 0H177.028C176.866 1.9399 175.679 3.09067 173.665 3.09067C171.651 3.09067 170.482 1.9399 170.341 0Z" fill="#252829"/>
<path d="M68.4558 28.1453H65.6357V17.5811H70.2487L72.3012 22.8527L74.397 17.5811H78.7263V28.1453H75.1821V21.358L72.463 28.1453H71.1139L68.4558 21.358V28.1453Z" fill="#252829"/>
<path d="M80.8287 27.6403C80.1637 27.1356 79.7407 26.3481 79.7407 25.2166C79.7407 22.7318 81.8157 21.7627 85.3391 21.7627H86.3453V21.52C86.3453 20.4898 86.1034 19.8437 84.9561 19.8437C83.9691 19.8437 83.607 20.4287 83.5269 21.0957H80.1429C80.223 19.8228 80.7678 18.8729 81.6538 18.2268C82.5207 17.6 83.7288 17.2979 85.1789 17.2979C86.6289 17.2979 87.8178 17.6 88.643 18.2477C89.4681 18.8938 89.9312 19.9047 89.9312 21.2982V28.1465H86.427V26.9138C85.9239 27.7013 84.9978 28.3892 83.3058 28.3892C82.3588 28.3892 81.4728 28.1465 80.8287 27.6419M86.3469 24.4499V23.8038H85.4C83.9499 23.8038 83.3058 24.0867 83.3058 24.9546C83.3058 25.5814 83.6887 25.9446 84.554 25.9446C85.581 25.9446 86.3469 25.358 86.3469 24.4499Z" fill="#252829"/>
<path d="M94.9844 17.5807V19.1558C95.6093 18.1256 96.6556 17.2979 98.2674 17.2979C99.4964 17.2979 100.604 17.7623 101.41 18.672C102.215 19.5817 102.719 20.9752 102.719 22.772V22.9343C102.719 24.773 102.215 26.1263 101.41 27.0151C100.604 27.9247 99.4756 28.3892 98.2482 28.3892C96.6363 28.3892 95.5292 27.6419 94.986 26.5907V31.6808H91.3809V17.5807H94.986H94.9844ZM99.0526 22.9343V22.772C99.0526 20.9141 98.2674 20.0253 96.9776 20.0253C95.6878 20.0253 94.8834 20.9752 94.8834 22.7527V22.9134C94.8834 24.7119 95.6686 25.62 96.9776 25.62C98.2867 25.62 99.0526 24.691 99.0526 22.9343Z" fill="#252829"/>
<path d="M107.329 28.1453H103.724V17.5811H107.329V21.763L110.168 17.5811H113.914L110.469 22.3272L114.196 28.1453H110.168L107.329 23.5197V28.1453Z" fill="#252829"/>
<path d="M115.252 26.9948C114.225 26.0851 113.621 24.7125 113.621 22.9944V22.8321C113.621 21.1349 114.245 19.7607 115.273 18.7916C116.3 17.8224 117.729 17.2969 119.32 17.2969C120.77 17.2969 122.098 17.7212 123.085 18.61C124.051 19.4988 124.676 20.8729 124.676 22.7518V23.7016H117.266C117.367 25.0951 118.173 25.9035 119.461 25.9035C120.669 25.9035 121.153 25.3586 121.294 24.6515H124.678C124.356 27.0559 122.544 28.3882 119.341 28.3882C117.67 28.3882 116.239 27.9029 115.253 26.9948M119.322 19.682C118.214 19.682 117.489 20.3683 117.307 21.6621H121.174C121.113 20.3699 120.509 19.682 119.322 19.682Z" fill="#252829"/>
<path d="M131.177 20.0449V28.1453H127.593V20.0449H124.633V17.5811H134.138V20.0449H131.177Z" fill="#252829"/>
<path d="M134.633 17.5811H138.217V24.0051L141.519 17.5811H145.105V28.1453H141.519V21.7212L138.217 28.1453H134.633V17.5811Z" fill="#252829"/>
<path d="M150.234 24.0051V28.1453H146.648V17.5811H150.234V21.5396H153.396V17.5811H156.98V28.1453H153.396V24.0051H150.234Z" fill="#252829"/>
<path d="M162.109 28.1453H158.524V17.5811H166.076V20.0449H162.109V28.1453Z" fill="#252829"/>
</svg>

<svg width="179" height="32" viewBox="0 0 179 32" fill="none" xmlns="http://www.w3.org/2000/svg"><path d="M4.097 20.373A4.108 4.108 0 000 24.483a4.108 4.108 0 004.097 4.11 4.108 4.108 0 004.097-4.11 4.108 4.108 0 00-4.097-4.11zm16.387 0a4.108 4.108 0 00-4.097 4.11 4.108 4.108 0 004.097 4.11 4.108 4.108 0 004.097-4.11 4.108 4.108 0 00-4.097-4.11zm16.387 0a4.108 4.108 0 00-4.097 4.11 4.108 4.108 0 004.097 4.11 4.108 4.108 0 004.097-4.11 4.108 4.108 0 00-4.097-4.11zm16.387 0a4.108 4.108 0 00-4.097 4.11 4.108 4.108 0 004.097 4.11 4.108 4.108 0 004.097-4.11 4.108 4.108 0 00-4.097-4.11zm-8.194-8.219a4.108 4.108 0 00-4.097 4.11 4.108 4.108 0 004.097 4.11 4.108 4.108 0 004.097-4.11 4.108 4.108 0 00-4.097-4.11zM12.29 3.937a4.108 4.108 0 00-4.096 4.11 4.108 4.108 0 004.097 4.109 4.108 4.108 0 004.097-4.11 4.108 4.108 0 00-4.097-4.11zm24.581 8.217a4.108 4.108 0 004.097-4.11 4.108 4.108 0 00-4.097-4.11 4.108 4.108 0 00-4.097 4.11 4.108 4.108 0 004.097 4.11zm16.387 0a4.108 4.108 0 004.097-4.11 4.108 4.108 0 00-4.097-4.11 4.108 4.108 0 00-4.097 4.11 4.108 4.108 0 004.097 4.11z" fill="#F16041"/><path d="M66.179 14.463c-.665-.504-1.088-1.292-1.088-2.423 0-2.485 2.073-3.454 5.598-3.454h1.006v-.243c0-1.03-.241-1.676-1.389-1.676-.987 0-1.349.587-1.429 1.252h-3.384c.08-1.273.625-2.223 1.51-2.869.868-.627 2.076-.929 3.526-.929 1.45 0 2.639.302 3.464.95.825.646 1.288 1.657 1.288 3.05v6.849h-3.504v-1.233c-.503.788-1.43 1.476-3.121 1.476-.947 0-1.833-.243-2.477-.748m5.518-3.192v-.646h-.947c-1.45 0-2.094.283-2.094 1.15 0 .628.383.99 1.248.99 1.027 0 1.793-.584 1.793-1.494zM80.3 6.868v8.1h-3.585V4.405h10.13V14.97H83.26v-8.1H80.3zm11.663 0v8.1h-3.586V4.405h10.131V14.97h-3.586v-8.1h-2.96zm9.161 6.949c-1.027-.91-1.63-2.282-1.63-4v-.163c0-1.697.624-3.071 1.651-4.04 1.027-.97 2.456-1.495 4.047-1.495 1.451 0 2.779.424 3.766 1.313.966.889 1.591 2.263 1.591 4.142v.95h-7.411c.101 1.393.907 2.202 2.195 2.202 1.209 0 1.692-.545 1.833-1.252h3.384c-.322 2.404-2.134 3.736-5.337 3.736-1.671 0-3.102-.485-4.087-1.393m4.068-7.313c-1.107 0-1.833.688-2.014 1.98h3.866c-.061-1.292-.665-1.98-1.852-1.98zm11.857.364v8.1h-3.586v-8.1h-2.959V4.404h9.505v2.464h-2.96zm3.455-2.464h3.584v6.424l3.304-6.424h3.584v10.564h-3.584V8.544l-3.304 6.425h-3.584V4.404zm17.524 2.464v8.1h-3.585v-8.1h-2.961V4.404h9.507v2.464h-2.961zm7.04 3.96v4.14h-3.584V4.405h3.584v3.959h3.161v-3.96h3.586v10.564h-3.586v-4.14h-3.161zm11.875-6.424v3.152h1.692c2.597 0 4.089 1.474 4.089 3.737v.06c0 2.264-1.33 3.617-4.23 3.617h-5.136V4.404h3.585zm2.134 6.929v-.061c0-.828-.484-1.252-1.471-1.252h-.665v2.485h.665c.947 0 1.471-.283 1.471-1.172zm7.894 3.636h-3.565V4.404h3.565V14.97v-.002zm1.556-10.565h3.585v6.424l3.302-6.424H179V14.97h-3.584V8.546l-3.302 6.424h-3.585V4.404zM170.341 0h2.438c.06.566.301 1.03.886 1.03.584 0 .865-.464.947-1.03h2.416c-.162 1.94-1.349 3.09-3.363 3.09-2.014 0-3.183-1.15-3.324-3.09zM68.456 28.145h-2.82V17.581h4.613l2.052 5.272 2.096-5.272h4.33v10.564h-3.545v-6.787l-2.719 6.787h-1.35l-2.657-6.787v6.787zm12.373-.505c-.665-.504-1.088-1.292-1.088-2.423 0-2.485 2.075-3.454 5.598-3.454h1.006v-.243c0-1.03-.242-1.676-1.389-1.676-.987 0-1.349.585-1.43 1.252h-3.383c.08-1.273.625-2.223 1.51-2.87.868-.626 2.076-.928 3.526-.928 1.45 0 2.639.302 3.464.95.825.646 1.288 1.657 1.288 3.05v6.849h-3.504v-1.233c-.503.787-1.43 1.475-3.121 1.475-.947 0-1.833-.242-2.477-.747m5.518-3.192v-.646H85.4c-1.45 0-2.094.283-2.094 1.15 0 .627.383.99 1.248.99 1.027 0 1.793-.586 1.793-1.494zm8.637-6.87v1.576c.625-1.03 1.672-1.858 3.283-1.858 1.23 0 2.337.464 3.143 1.374.805.91 1.309 2.303 1.309 4.1v.162c0 1.839-.504 3.192-1.309 4.081-.806.91-1.934 1.374-3.162 1.374-1.612 0-2.719-.747-3.262-1.798v5.09h-3.605v-14.1h3.605-.002zm4.069 5.354v-.162c0-1.858-.786-2.747-2.075-2.747-1.29 0-2.095.95-2.095 2.728v.16c0 1.799.786 2.707 2.095 2.707 1.309 0 2.075-.929 2.075-2.686zm8.276 5.211h-3.605V17.581h3.605v4.182l2.839-4.182h3.746l-3.445 4.746 3.727 5.818h-4.028l-2.839-4.625v4.625z" fill="#252829"/><path d="M115.252 26.995c-1.027-.91-1.631-2.283-1.631-4v-.163c0-1.697.624-3.071 1.652-4.04 1.027-.97 2.456-1.495 4.047-1.495 1.45 0 2.778.424 3.765 1.313.966.889 1.591 2.263 1.591 4.142v.95h-7.41c.101 1.393.907 2.201 2.195 2.201 1.208 0 1.692-.544 1.833-1.252h3.384c-.322 2.405-2.134 3.737-5.337 3.737-1.671 0-3.102-.485-4.088-1.393m4.069-7.313c-1.108 0-1.833.686-2.015 1.98h3.867c-.061-1.292-.665-1.98-1.852-1.98zm11.855.363v8.1h-3.584v-8.1h-2.96V17.58h9.505v2.464h-2.961zm3.456-2.464h3.584v6.424l3.302-6.424h3.586v10.564h-3.586v-6.424l-3.302 6.424h-3.584V17.581zm15.601 6.424v4.14h-3.586V17.581h3.586v3.959h3.162v-3.96h3.584v10.564h-3.584v-4.14h-3.162zm11.875 4.14h-3.585V17.581h7.552v2.464h-3.967v8.1z" fill="#252829"/></svg>
